X:1629
T:Svajmaster, förenklad version
C:Johannes Hultman
Z:Anton Teljebäck 2009-09-02
O:Västerbotten
M:4/4
L:1/8
K:D
|: vF>G FE  FG AA | F>G FE FG A2 |  vF>G FE FG AA | vG3/(vG/ G)F GF ED :| vF3/(vF/ F)E D4 ||
vE3/(vE/ E)D vF3/(vF/ F)D | vG3/(vG/ G)F GF ED |  vE3/(vE/ E)D vF3/(vF/ F)D | vG3/(vF/ F)E F4 |
vE3/(vE/ E)D vF3/(vF/ F)D | vG3/(vG/ G)F GF ED |  vE3/(vE/ E)D vF3/(vF/ F)D | vG3/(vF/ F)E D4 |
(:musicend:)

(:music:)
